X: 2
T: The Humours Of Ballyconnell
R: reel
M: 4/4
L: 1/8
K: Dmaj
A|defe dBBA|FBAF E3A|defe dBBA|FBAF D3:|:E|F/E/DAD FAAF|GEcE dEcE|F/E/DAD FAAF|(3ABA GE D3:|:f|a2ag a3f|gece Aece|a2ag abag|(3fgf ecd3:||


Tune 1428	Setting 27991

